!!!COM: Music21
!!!OTL: waltz_Lament-For-Terrence-MacDonough
!!!OMV: waltz_Lament-For-Terrence-MacDonough
**kern
*clefG2
*k[b-e-]
*g:
*M3/4
=1
8gL
8aJ
=
4b-
8aL
8gJ
8aL
8b-J
=
2g
8gL
8aJ
=
4b-
16b-LL
16ccJ
8ddJ
8b-L
8ddJ
=
2cc
8ffL
8ee-J
=
4dd
8ddL
8ee-J
8ffL
8ee-J
=
8ddL
8ccJ
8ddL
8ee-J
8ffL
8ddJ
=
4cc
8b-L
8aJ
8gL
8fJ
!!linebreak:original
=
2f
8gL
8aJ
=
4b-
8aL
8gJ
8ggL
8aaJ
=
2gg
4aa
=
4bb-
8aaL
8ggJ
8ffL
8ggJ
=
2ff
8ddL
8ccJ
=
4b-
4b-
8b-L
8ccJ
=
4a
4a
8b-L
8ccJ
=
4dd
4g
8gL
8aJ
=
2g
4ryy
!!linebreak:original
=||
8gL
8fJ
2ryy
=
4d
4g
8gL
8aJ
=
2g
8gL
8fJ
=
4d
4b-
8b-L
8ccJ
=
2b-
8aL
8gJ
=
4f
4ff
8ffL
8ggJ
=
4ff
8ee-L
8ddJ
8ccL
8b-J
=
4gg
8aaL
8ggJ
8ffL
8ee-J
=
2dd
8ddL
8ccJ
!!linebreak:original
=
2b-
8ddL
8ccJ
=
2a
4cc
=
8ddL
8ccJ
8ddL
8eenJ
8ffL
8ggJ
=
2ff
8ddL
8ccJ
=
4b-
4b-
8b-L
8ccJ
=
4a
4a
8b-L
8ccJ
=
4dd
4g
8gL
8aJ
=
2g
4ryy
=||
*-
